X:404
T:Lady Charlotte Campbell
R:Reel
C:Robert MacIntosh
B:The Athole Collection
M:C|
L:1/8
K:B_
F|~B3f dBfd|edcB AFcA|B2 bf dBfB|AFec dBB:|
d|f2 d>b g2 E>e|c2 A>a f2 D>d|B2 G>g e>dc>B|A<cF<e dB~Bf|
dBba gfed|cAag fedc|BGgf edcB|Afec dB~B||

